(
"
120 => )
ooo/ ]]]
<c,e,_a>.choose ] ]] ]] D.C.
".skoar.play;
)

(
"
.h  @hats => @instrument ]] D.C.
.s @snare => @instrument } ) D.C.
.k  @kick => @instrument ) D.C.

<? .a <_a, _c, c, _e, e, _a> {! ]]] ooo/ !} ?>

.a {? 10.rand <= 5 ?? 0 ]] ]] :: 4 ] ?} D.C.

<? if-else ?>
.a {? 10.rand == 5 ?? ] ] ] ] ]] ] ]] :: ] ] }} ?}

<? case ?>
.a {? 10.rand >= 5 ?? ] ] ] ] ]] ] ]] :: }}
      10.rand <= 6 ?? ] ] ] ] ]] ] ]] :: } )
      11.rand <= 3 ?? ] ] }} ?}

".skoar.play;
)
